X: 13713
T: For The Sake Of Old Decency
R: reel
M: 4/4
K: Gmajor
d2BG AGEG|DGBG A2 (3ABc|d2BG AGEG|BGAG EGGB|
d2BG AGEG|DGBG A2 (3ABc|dGBG AGEG|dBAG EG G2||
G3B d2 (3Bcd|eaag egg2|G3B d2 (3Bcd|ea a2 bged|
G3B d2 (3Bcd|eaag egg2|bgag egdB|d2bg ageg||

